dist/assets/images/icons/marker.svg

<svg width="53" height="59" viewBox="0 0 53 59" fill="none" xmlns="http://www.w3.org/2000/svg">
<path d="M0 0H53V47.5204L26.5 59L0 47.5204V0Z" fill="white"/>
<path fill-rule="evenodd" clip-rule="evenodd" d="M13.0534 13H14.8699H31.5786C38.079 13 43.4684 17.9686 44.2791 24.3547H37.4034C36.7129 21.9923 34.5361 20.2548 31.984 20.2548H13.2485H11.5371L10.0059 13H13.0534Z" fill="#0000BD"/>
<path d="M30.9756 25.3783H32.672L31.8613 23.7779H31.8163L30.9756 25.3783ZM30.0148 27.2834H28.8288L31.0807 22.9702H32.5819L34.8187 27.2834H33.6328L33.0923 26.2013H30.5852L30.0148 27.2834ZM24.4302 22.9702H28.0632V23.8237H25.436V27.2834H24.4152V22.9702H24.4302ZM19.5061 23.8237V25.1497H21.2025C21.4577 25.1497 21.6229 25.1039 21.7129 24.9972C21.803 24.8906 21.8631 24.7229 21.8631 24.479C21.8631 24.2504 21.818 24.0828 21.7279 23.9913C21.6229 23.8846 21.4577 23.8237 21.2025 23.8237H19.5061ZM19.5061 26.0032V27.2682H18.4853V22.9702H21.3827C21.9231 22.9702 22.2984 23.0921 22.5386 23.3207C22.7638 23.5493 22.8839 23.9456 22.8839 24.479C22.8839 25.0277 22.7638 25.424 22.5386 25.6526C22.3134 25.8965 21.9381 26.0032 21.3977 26.0032H19.5061ZM13.306 24.7229H15.8281V24.54C15.8281 24.2047 15.7831 24.0066 15.678 23.9151C15.5729 23.8237 15.3477 23.7932 15.0024 23.7932H13.6963C13.3961 23.7932 13.2009 23.8389 13.0658 23.9304C12.9457 24.0218 12.8857 24.1895 12.8857 24.4028H11.8648C11.8648 23.8389 12.0149 23.4426 12.3152 23.214C12.5704 23.0311 12.9757 22.9244 13.5162 22.9244H15.1976C15.8281 22.9244 16.2484 23.0311 16.4886 23.2445C16.7138 23.4579 16.8339 23.8694 16.8339 24.4943V25.7593C16.8339 26.3385 16.7288 26.7347 16.5036 26.9634C16.2785 27.1767 15.8731 27.2987 15.2876 27.2987H13.4111C12.7956 27.2987 12.3903 27.192 12.1801 26.9938C11.9699 26.7805 11.8798 26.3842 11.8798 25.805H12.9007C12.9007 26.0641 12.9607 26.2318 13.0808 26.3232C13.2009 26.4147 13.4111 26.4452 13.7264 26.4452H15.0324C15.3327 26.4452 15.5429 26.3994 15.663 26.308C15.7981 26.2013 15.8581 25.9879 15.8581 25.6679V25.4697H13.306V24.7229Z" fill="#2B2A29"/>
<path fill-rule="evenodd" clip-rule="evenodd" d="M13.0536 37.2035H14.8701H31.5789C38.0792 37.2035 43.4686 32.2196 44.2793 25.8488H37.4037C36.7131 28.2112 34.5363 29.9487 31.9842 29.9487H13.2488H11.5373L10.0061 37.2035H13.0536Z" fill="#E31E24"/>
</svg>

<svg width="53" height="59" fill="none" xmlns="http://www.w3.org/2000/svg"><path d="M0 0h53v47.52L26.5 59 0 47.52V0z" fill="#fff"/><path fill-rule="evenodd" clip-rule="evenodd" d="M13.053 13H31.58c6.5 0 11.89 4.969 12.7 11.355h-6.876c-.69-2.363-2.867-4.1-5.419-4.1H11.538L10.005 13h3.047z" fill="#0000BD"/><path d="M30.976 25.378h1.696l-.81-1.6h-.046l-.84 1.6zm-.961 1.905h-1.186l2.252-4.313h1.5l2.238 4.313h-1.186l-.54-1.082h-2.508l-.57 1.082zM24.43 22.97h3.633v.854h-2.627v3.46h-1.02V22.97h.014zm-4.924.854v1.326h1.697c.255 0 .42-.046.51-.153.09-.106.15-.274.15-.518 0-.229-.045-.396-.135-.488-.105-.106-.27-.167-.526-.167h-1.696zm0 2.18v1.264h-1.02V22.97h2.897c.54 0 .915.122 1.156.35.225.23.345.626.345 1.159 0 .549-.12.945-.345 1.174-.226.244-.6.35-1.141.35h-1.892zm-6.2-1.281h2.522v-.183c0-.335-.045-.533-.15-.625-.105-.091-.33-.122-.676-.122h-1.306c-.3 0-.495.046-.63.137-.12.092-.18.26-.18.473h-1.021c0-.564.15-.96.45-1.189.255-.183.66-.29 1.201-.29h1.682c.63 0 1.05.107 1.29.32.226.214.346.625.346 1.25v1.265c0 .58-.105.976-.33 1.204-.226.214-.63.336-1.216.336H13.41c-.615 0-1.02-.107-1.23-.305-.211-.213-.301-.61-.301-1.189h1.02c0 .26.06.427.18.518.12.092.331.122.646.122h1.306c.3 0 .51-.046.631-.137.135-.107.195-.32.195-.64v-.198h-2.552v-.747z" fill="#2B2A29"/><path fill-rule="evenodd" clip-rule="evenodd" d="M13.054 37.203h18.525c6.5 0 11.89-4.983 12.7-11.354h-6.875c-.69 2.362-2.868 4.1-5.42 4.1H11.537l-1.53 7.254h3.047z" fill="#E31E24"/></svg>
